Dominus_Dark_Funeral/22/devices/auth-sim.svg

<svg xmlns="http://www.w3.org/2000/svg" width="24" height="24" viewBox="0 0 12.7 12.7"><defs><linearGradient id="c"><stop offset="0" stop-color="#00000c"/><stop offset="1" stop-color="#0b0000" stop-opacity="0"/></linearGradient><linearGradient id="a"><stop offset="0" stop-color="#22241c"/><stop offset="1" stop-color="#e6e6e6" stop-opacity="0"/></linearGradient><linearGradient id="b"><stop offset="0" stop-color="#e6e6e6"/><stop offset="1" stop-color="#666"/></linearGradient></defs><path d="M5.408 1.64L2.579 4.47v5.649c0 .519.423.942.945.942H9.18a.939.939 0 0 0 .94-.942l-.005-7.536a.939.939 0 0 0-.939-.944zM3.993 5.88h.944v1.885h-.944zm1.884 0h.944v.941h-.944zm1.886 0h.942v1.885h-.944zM5.877 7.766h.944v1.883h-.944zm-1.884.942h.944v.94h-.944zm3.77 0h.942v.94h-.944z" fill="#e6e6e6"/></svg>

<?xml version="1.0" encoding="UTF-8" standalone="no"?>
<svg
   xmlns:dc="http://purl.org/dc/elements/1.1/"
   xmlns:cc="http://creativecommons.org/ns#"
   xmlns:rdf="http://www.w3.org/1999/02/22-rdf-syntax-ns#"
   xmlns:svg="http://www.w3.org/2000/svg"
   xmlns="http://www.w3.org/2000/svg"
   xmlns:sodipodi="http://sodipodi.sourceforge.net/DTD/sodipodi-0.dtd"
   xmlns:inkscape="http://www.inkscape.org/namespaces/inkscape"
   width="24"
   height="24"
   viewBox="0 0 12.7 12.7"
   version="1.1"
   id="svg21"
   sodipodi:docname="auth-sim.svg"
   inkscape:version="0.92.4 (5da689c313, 2019-01-14)">
  <metadata
     id="metadata25">
    <rdf:RDF>
      <cc:Work
         rdf:about="">
        <dc:format>image/svg+xml</dc:format>
        <dc:type
           rdf:resource="http://purl.org/dc/dcmitype/StillImage" />
        <dc:title></dc:title>
      </cc:Work>
    </rdf:RDF>
  </metadata>
  <sodipodi:namedview
     pagecolor="#ffffff"
     bordercolor="#666666"
     borderopacity="1"
     objecttolerance="10"
     gridtolerance="10"
     guidetolerance="10"
     inkscape:pageopacity="0"
     inkscape:pageshadow="2"
     inkscape:window-width="1138"
     inkscape:window-height="480"
     id="namedview23"
     showgrid="false"
     inkscape:zoom="9.8333333"
     inkscape:cx="1.0677966"
     inkscape:cy="12"
     inkscape:window-x="0"
     inkscape:window-y="25"
     inkscape:window-maximized="0"
     inkscape:current-layer="svg21" />
  <defs
     id="defs17">
    <linearGradient
       id="c">
      <stop
         offset="0"
         stop-color="#00000c"
         id="stop2" />
      <stop
         offset="1"
         stop-color="#0b0000"
         stop-opacity="0"
         id="stop4" />
    </linearGradient>
    <linearGradient
       id="a">
      <stop
         offset="0"
         stop-color="#22241c"
         id="stop7" />
      <stop
         offset="1"
         stop-color="#e6e6e6"
         stop-opacity="0"
         id="stop9" />
    </linearGradient>
    <linearGradient
       id="b">
      <stop
         offset="0"
         stop-color="#e6e6e6"
         id="stop12" />
      <stop
         offset="1"
         stop-color="#666"
         id="stop14" />
    </linearGradient>
  </defs>
  <path
     d="M 5.408,1.64 2.579,4.47 v 5.649 c 0,0.519 0.423,0.942 0.945,0.942 H 9.18 a 0.939,0.939 0 0 0 0.94,-0.942 L 10.115,2.583 A 0.939,0.939 0 0 0 9.176,1.639 Z M 3.993,5.88 H 4.937 V 7.765 H 3.993 Z m 1.884,0 H 6.821 V 6.821 H 5.877 Z m 1.886,0 H 8.705 V 7.765 H 7.761 Z M 5.877,7.766 H 6.821 V 9.649 H 5.877 Z M 3.993,8.708 h 0.944 v 0.94 H 3.993 Z m 3.77,0 h 0.942 v 0.94 H 7.761 Z"
     id="path19"
     inkscape:connector-curvature="0"
     style="fill:#e6e6e6" />
</svg>
